dist/img/icon_7_new.svg

<svg width="92" height="74" viewBox="0 0 92 74" fill="none" xmlns="http://www.w3.org/2000/svg">
<g filter="url(#filter0_d)">
<path d="M73.4345 30C70.8568 30 60.6688 30.3677 29 33.6775C60.6688 36.9872 70.8568 37.355 73.4345 37.355C76.0122 37.355 78.2216 36.4969 78.2216 33.6775C78.2216 30.8581 76.1349 30 73.4345 30Z" fill="url(#paint0_linear)"/>
</g>
<g filter="url(#filter1_d)">
<path d="M43.7089 40C41.7534 40 34.0246 40.2829 10 42.8288C34.0246 45.3748 41.7534 45.6577 43.7089 45.6577C45.6644 45.6577 47.3405 44.9976 47.3405 42.8288C47.3405 40.6601 45.7575 40 43.7089 40Z" fill="url(#paint1_linear)"/>
</g>
<g filter="url(#filter2_bdi)">
<path d="M82.771 27.7366C81.3952 26.5329 79.3316 26.7908 78.0419 28.0805C74.7746 31.1759 69.6156 31.0899 66.4343 27.9086L61.7912 23.2655C55.8584 17.3327 46.3143 17.3327 40.3815 23.2655L39.3497 24.2973C38.06 25.587 37.8021 27.8226 39.0918 29.1983C40.3815 30.66 42.7031 30.746 44.0788 29.3703L45.2825 28.1665C47.0882 26.3609 49.4957 25.587 51.9032 25.845C53.9668 26.017 54.7406 28.5964 53.3649 29.9722L40.6395 42.4396C39.0058 43.9013 37.2002 44.7612 35.1366 44.7612H27.5701C25.7645 44.7612 24.1308 46.0509 23.9589 47.8565C23.7869 49.9201 25.3346 51.6398 27.3982 51.6398H35.0506C39.0058 51.6398 42.6171 50.0921 45.4545 47.3406L47.4321 45.535C48.4639 44.5892 50.0116 44.6752 50.8714 45.707L55.0846 50.608C56.5463 52.3276 57.2341 54.6492 56.8902 56.8847L55.9444 63.1614C55.6864 64.9671 56.8042 66.7727 58.6098 67.2026C58.8678 67.2886 59.1257 67.2886 59.2977 67.2886C60.9314 67.2886 62.4791 66.0848 62.737 64.3652L63.6828 57.8305C64.2847 53.6174 63.0809 49.3182 60.2435 46.0509L58.4379 43.8154C57.4061 42.6116 57.4921 40.8919 58.6098 39.7742L61.1893 37.1947C62.565 35.819 64.6286 35.3891 66.4343 36.1629C68.3259 36.9367 70.3035 37.3667 72.2811 37.3667C76.1503 37.3667 80.0195 35.905 83.0289 32.8956C84.4046 31.3479 84.3186 29.0263 82.771 27.7366Z" fill="#98B5FF" fill-opacity="0.6"/>
</g>
<g filter="url(#filter3_f)">
<path d="M82.2771 28.301L82.2839 28.307L82.2908 28.3128C83.4768 29.3011 83.5896 31.1196 82.4823 32.3814C79.6214 35.2338 75.9522 36.6167 72.2811 36.6167C70.4143 36.6167 68.5348 36.2112 66.7237 35.471C64.6297 34.5765 62.2439 35.0794 60.659 36.6644L58.0795 39.2438C56.6934 40.6299 56.5764 42.7873 57.861 44.2948L59.6601 46.5222L59.6685 46.5326L59.6772 46.5427C62.3681 49.6412 63.5123 53.7207 62.9403 57.7244L61.9953 64.2539C61.9952 64.2544 61.9952 64.2548 61.9951 64.2553C61.7954 65.5818 60.5859 66.5386 59.2977 66.5386C59.1199 66.5386 58.9757 66.534 58.847 66.4911L58.8157 66.4807L58.7836 66.473C57.386 66.1403 56.4802 64.7227 56.6865 63.2701C56.6866 63.2692 56.6867 63.2684 56.6868 63.2675L57.6315 56.9988C57.6315 56.9986 57.6315 56.9984 57.6316 56.9982C58.0094 54.5409 57.254 52.0022 55.656 50.1222L55.6533 50.1191L51.4437 45.2222C50.295 43.8491 48.2551 43.7636 46.9258 44.9817C46.9256 44.9819 46.9255 44.982 46.9253 44.9821L44.9488 46.7868L44.9405 46.7944L44.9324 46.8022C42.2269 49.4257 38.8 50.8898 35.0506 50.8898H27.3982C25.786 50.8898 24.572 49.5587 24.7059 47.9233C24.8383 46.5593 26.0953 45.5112 27.5701 45.5112H35.1366C37.4306 45.5112 39.4069 44.5488 41.1396 42.9986L41.1522 42.9872L41.1643 42.9754L53.8898 30.5079L53.8898 30.5079L53.8952 30.5025C54.8099 29.5878 54.9923 28.2911 54.6353 27.22C54.275 26.1391 53.34 25.2159 51.9747 25.0984C49.3545 24.82 46.7231 25.6653 44.7522 27.6362L43.5484 28.8399C42.4828 29.9056 40.6616 29.8439 39.6542 28.7021L39.6467 28.6936L39.6389 28.6854C38.6778 27.6602 38.8198 25.8879 39.8801 24.8276L40.9119 23.7958C46.5518 18.1559 55.621 18.1559 61.2609 23.7958L65.9039 28.4389C69.3707 31.9057 74.9935 32.0016 78.5577 28.625L78.5651 28.618L78.5722 28.6109C79.6377 27.5454 81.2536 27.4055 82.2771 28.301Z" stroke="#FFDFF4" stroke-opacity="0.2" stroke-width="1.5"/>
</g>
<g filter="url(#filter4_bdi)">
<path d="M76.9642 17.5905C76.9642 20.6991 74.4442 23.2191 71.3356 23.2191C68.227 23.2191 65.707 20.6991 65.707 17.5905C65.707 14.4819 68.227 11.9619 71.3356 11.9619C74.4442 11.9619 76.9642 14.4819 76.9642 17.5905Z" stroke="#FF123D" stroke-width="2.5"/>
</g>
<g filter="url(#filter5_bdi)">
<path d="M49 39.3472L55.9804 32.6842C58.2351 30.532 58.4143 26.9928 56.3885 24.6239V24.6239C55.4916 23.5752 54.2539 22.876 52.8928 22.6492L52 22.5004" stroke="#98B5FF" stroke-opacity="0.6" stroke-width="2" stroke-linecap="round" stroke-linejoin="round"/>
</g>
<defs>
<filter id="filter0_d" x="19" y="20" width="69.2216" height="27.355" filterUnits="userSpaceOnUse" color-interpolation-filters="sRGB">
<feFlood flood-opacity="0" result="BackgroundImageFix"/>
<feColorMatrix in="SourceAlpha" type="matrix" values="0 0 0 0 0 0 0 0 0 0 0 0 0 0 0 0 0 0 127 0"/>
<feOffset/>
<feGaussianBlur stdDeviation="5"/>
<feColorMatrix type="matrix" values="0 0 0 0 0.00833333 0 0 0 0 0.762 0 0 0 0 1 0 0 0 0.5 0"/>
<feBlend mode="normal" in2="BackgroundImageFix" result="effect1_dropShadow"/>
<feBlend mode="normal" in="SourceGraphic" in2="effect1_dropShadow" result="shape"/>
</filter>
<filter id="filter1_d" x="0" y="30" width="57.3405" height="25.6577" filterUnits="userSpaceOnUse" color-interpolation-filters="sRGB">
<feFlood flood-opacity="0" result="BackgroundImageFix"/>
<feColorMatrix in="SourceAlpha" type="matrix" values="0 0 0 0 0 0 0 0 0 0 0 0 0 0 0 0 0 0 127 0"/>
<feOffset/>
<feGaussianBlur stdDeviation="5"/>
<feColorMatrix type="matrix" values="0 0 0 0 0.00833333 0 0 0 0 0.762 0 0 0 0 1 0 0 0 0.5 0"/>
<feBlend mode="normal" in2="BackgroundImageFix" result="effect1_dropShadow"/>
<feBlend mode="normal" in="SourceGraphic" in2="effect1_dropShadow" result="shape"/>
</filter>
<filter id="filter2_bdi" x="13.9458" y="8.81592" width="80.0542" height="68.4727" filterUnits="userSpaceOnUse" color-interpolation-filters="sRGB">
<feFlood flood-opacity="0" result="BackgroundImageFix"/>
<feGaussianBlur in="BackgroundImage" stdDeviation="5"/>
<feComposite in2="SourceAlpha" operator="in" result="effect1_backgroundBlur"/>
<feColorMatrix in="SourceAlpha" type="matrix" values="0 0 0 0 0 0 0 0 0 0 0 0 0 0 0 0 0 0 127 0"/>
<feOffset dy="-2"/>
<feGaussianBlur stdDeviation="4"/>
<feColorMatrix type="matrix" values="0 0 0 0 0 0 0 0 0 0 0 0 0 0 0 0 0 0 0.1 0"/>
<feBlend mode="normal" in2="effect1_backgroundBlur" result="effect2_dropShadow"/>
<feBlend mode="normal" in="SourceGraphic" in2="effect2_dropShadow" result="shape"/>
<feColorMatrix in="SourceAlpha" type="matrix" values="0 0 0 0 0 0 0 0 0 0 0 0 0 0 0 0 0 0 127 0" result="hardAlpha"/>
<feOffset dy="-2"/>
<feGaussianBlur stdDeviation="3.5"/>
<feComposite in2="hardAlpha" operator="arithmetic" k2="-1" k3="1"/>
<feColorMatrix type="matrix" values="0 0 0 0 1 0 0 0 0 1 0 0 0 0 1 0 0 0 0.3 0"/>
<feBlend mode="normal" in2="shape" result="effect3_innerShadow"/>
</filter>
<filter id="filter3_f" x="22.9458" y="17.8159" width="62.0542" height="50.4727" filterUnits="userSpaceOnUse" color-interpolation-filters="sRGB">
<feFlood flood-opacity="0" result="BackgroundImageFix"/>
<feBlend mode="normal" in="SourceGraphic" in2="BackgroundImageFix" result="shape"/>
<feGaussianBlur stdDeviation="0.5" result="effect1_foregroundBlur"/>
</filter>
<filter id="filter4_bdi" x="54.457" y="0.711914" width="33.7572" height="33.7572" filterUnits="userSpaceOnUse" color-interpolation-filters="sRGB">
<feFlood flood-opacity="0" result="BackgroundImageFix"/>
<feGaussianBlur in="BackgroundImage" stdDeviation="5"/>
<feComposite in2="SourceAlpha" operator="in" result="effect1_backgroundBlur"/>
<feColorMatrix in="SourceAlpha" type="matrix" values="0 0 0 0 0 0 0 0 0 0 0 0 0 0 0 0 0 0 127 0"/>
<feOffset dy="-2"/>
<feGaussianBlur stdDeviation="4"/>
<feColorMatrix type="matrix" values="0 0 0 0 0 0 0 0 0 0 0 0 0 0 0 0 0 0 0.1 0"/>
<feBlend mode="normal" in2="effect1_backgroundBlur" result="effect2_dropShadow"/>
<feBlend mode="normal" in="SourceGraphic" in2="effect2_dropShadow" result="shape"/>
<feColorMatrix in="SourceAlpha" type="matrix" values="0 0 0 0 0 0 0 0 0 0 0 0 0 0 0 0 0 0 127 0" result="hardAlpha"/>
<feOffset dy="-2"/>
<feGaussianBlur stdDeviation="3.5"/>
<feComposite in2="hardAlpha" operator="arithmetic" k2="-1" k3="1"/>
<feColorMatrix type="matrix" values="0 0 0 0 1 0 0 0 0 1 0 0 0 0 1 0 0 0 0.3 0"/>
<feBlend mode="normal" in2="shape" result="effect3_innerShadow"/>
</filter>
<filter id="filter5_bdi" x="38" y="11.5" width="30.7972" height="38.847" filterUnits="userSpaceOnUse" color-interpolation-filters="sRGB">
<feFlood flood-opacity="0" result="BackgroundImageFix"/>
<feGaussianBlur in="BackgroundImage" stdDeviation="5"/>
<feComposite in2="SourceAlpha" operator="in" result="effect1_backgroundBlur"/>
<feColorMatrix in="SourceAlpha" type="matrix" values="0 0 0 0 0 0 0 0 0 0 0 0 0 0 0 0 0 0 127 0"/>
<feOffset dy="-2"/>
<feGaussianBlur stdDeviation="4"/>
<feColorMatrix type="matrix" values="0 0 0 0 0 0 0 0 0 0 0 0 0 0 0 0 0 0 0.1 0"/>
<feBlend mode="normal" in2="effect1_backgroundBlur" result="effect2_dropShadow"/>
<feBlend mode="normal" in="SourceGraphic" in2="effect2_dropShadow" result="shape"/>
<feColorMatrix in="SourceAlpha" type="matrix" values="0 0 0 0 0 0 0 0 0 0 0 0 0 0 0 0 0 0 127 0" result="hardAlpha"/>
<feOffset dy="-2"/>
<feGaussianBlur stdDeviation="3.5"/>
<feComposite in2="hardAlpha" operator="arithmetic" k2="-1" k3="1"/>
<feColorMatrix type="matrix" values="0 0 0 0 1 0 0 0 0 1 0 0 0 0 1 0 0 0 0.3 0"/>
<feBlend mode="normal" in2="shape" result="effect3_innerShadow"/>
</filter>
<linearGradient id="paint0_linear" x1="77.6155" y1="33.6775" x2="30.2124" y2="33.6775" gradientUnits="userSpaceOnUse">
<stop stop-color="#0075FF"/>
<stop offset="1" stop-color="#5AC4FF"/>
</linearGradient>
<linearGradient id="paint1_linear" x1="46.8807" y1="42.8288" x2="10.9197" y2="42.8288" gradientUnits="userSpaceOnUse">
<stop stop-color="#0075FF"/>
<stop offset="1" stop-color="#5AC4FF"/>
</linearGradient>
</defs>
</svg>

<svg width="92" height="74" fill="none" xmlns="http://www.w3.org/2000/svg"><g filter="url(#filter0_d)"><path d="M73.434 30c-2.577 0-12.765.368-44.434 3.678 31.669 3.31 41.857 3.677 44.434 3.677 2.578 0 4.788-.858 4.788-3.677 0-2.82-2.087-3.678-4.787-3.678z" fill="url(#paint0_linear)"/></g><g filter="url(#filter1_d)"><path d="M43.709 40c-1.956 0-9.684.283-33.709 2.829 24.025 2.546 31.753 2.829 33.709 2.829 1.955 0 3.631-.66 3.631-2.83 0-2.168-1.582-2.828-3.63-2.828z" fill="url(#paint1_linear)"/></g><g filter="url(#filter2_bdi)"><path d="M82.771 27.737c-1.376-1.204-3.44-.946-4.73.344-3.266 3.095-8.425 3.009-11.607-.172l-4.643-4.643a15.102 15.102 0 00-21.41 0l-1.031 1.031c-1.29 1.29-1.548 3.526-.258 4.901 1.29 1.462 3.611 1.548 4.987.172l1.203-1.204c1.806-1.805 4.214-2.579 6.621-2.321 2.064.172 2.838 2.751 1.462 4.127L40.639 42.44c-1.633 1.46-3.439 2.32-5.502 2.32H27.57c-1.805 0-3.44 1.29-3.611 3.095-.172 2.064 1.376 3.784 3.44 3.784h7.652c3.955 0 7.566-1.548 10.404-4.3l1.977-1.805c1.032-.946 2.58-.86 3.44.172l4.213 4.901c1.461 1.72 2.15 4.041 1.805 6.277l-.946 6.276c-.258 1.806.86 3.612 2.666 4.042.258.086.516.086.688.086 1.633 0 3.181-1.204 3.439-2.924l.946-6.534c.602-4.214-.602-8.513-3.44-11.78l-1.805-2.236c-1.032-1.203-.946-2.923.172-4.04l2.58-2.58c1.375-1.376 3.439-1.806 5.244-1.032 1.892.774 3.87 1.204 5.847 1.204 3.87 0 7.738-1.462 10.748-4.471 1.376-1.548 1.29-3.87-.258-5.16z" fill="#98B5FF" fill-opacity=".6"/></g><g filter="url(#filter3_f)"><path d="M82.277 28.301l.007.006.007.006c1.186.988 1.299 2.807.191 4.068-2.86 2.853-6.53 4.236-10.2 4.236-1.868 0-3.747-.406-5.558-1.146-2.094-.894-4.48-.392-6.065 1.193l-2.58 2.58c-1.386 1.386-1.503 3.543-.218 5.05l1.8 2.228.008.01.008.01c2.691 3.1 3.835 7.179 3.263 11.182l-.945 6.53v.001c-.2 1.327-1.41 2.284-2.697 2.284-.178 0-.322-.005-.451-.048l-.031-.01-.032-.008c-1.398-.333-2.304-1.75-2.097-3.203v-.003L57.632 57s0 0 0 0c.377-2.458-.378-4.997-1.976-6.877l-.003-.003-4.21-4.897c-1.148-1.373-3.188-1.458-4.517-.24 0 0 0 0 0 0l-1.977 1.805-.008.007-.009.008c-2.705 2.624-6.132 4.088-9.881 4.088h-7.653c-1.612 0-2.826-1.331-2.692-2.967.132-1.364 1.39-2.412 2.864-2.412h7.567c2.294 0 4.27-.962 6.003-2.512l.012-.012.012-.012L53.89 30.508h0l.005-.005c.915-.915 1.097-2.212.74-3.283-.36-1.08-1.295-2.004-2.66-2.122-2.62-.278-5.252.567-7.223 2.538l-1.204 1.204c-1.065 1.066-2.886 1.004-3.894-.138l-.007-.008-.008-.009c-.961-1.025-.82-2.797.241-3.857l1.032-1.032a14.352 14.352 0 0120.349 0l4.643 4.643c3.467 3.467 9.09 3.563 12.654.186l.007-.007.007-.007c1.066-1.066 2.682-1.206 3.705-.31z" stroke="#FFDFF4" stroke-opacity=".2" stroke-width="1.5"/></g><g filter="url(#filter4_bdi)"><path d="M76.964 17.59a5.629 5.629 0 11-11.257 0 5.629 5.629 0 0111.257 0z" stroke="#FF123D" stroke-width="2.5"/></g><g filter="url(#filter5_bdi)"><path d="M49 39.347l6.98-6.663a5.87 5.87 0 00.409-8.06v0a5.87 5.87 0 00-3.496-1.975L52 22.5" stroke="#98B5FF" stroke-opacity=".6" stroke-width="2" stroke-linecap="round" stroke-linejoin="round"/></g><defs><filter id="filter0_d" x="19" y="20" width="69.222" height="27.355" filterUnits="userSpaceOnUse" color-interpolation-filters="sRGB"><feFlood flood-opacity="0" result="BackgroundImageFix"/><feColorMatrix in="SourceAlpha" values="0 0 0 0 0 0 0 0 0 0 0 0 0 0 0 0 0 0 127 0"/><feOffset/><feGaussianBlur stdDeviation="5"/><feColorMatrix values="0 0 0 0 0.00833333 0 0 0 0 0.762 0 0 0 0 1 0 0 0 0.5 0"/><feBlend in2="BackgroundImageFix" result="effect1_dropShadow"/><feBlend in="SourceGraphic" in2="effect1_dropShadow" result="shape"/></filter><filter id="filter1_d" x="0" y="30" width="57.34" height="25.658" filterUnits="userSpaceOnUse" color-interpolation-filters="sRGB"><feFlood flood-opacity="0" result="BackgroundImageFix"/><feColorMatrix in="SourceAlpha" values="0 0 0 0 0 0 0 0 0 0 0 0 0 0 0 0 0 0 127 0"/><feOffset/><feGaussianBlur stdDeviation="5"/><feColorMatrix values="0 0 0 0 0.00833333 0 0 0 0 0.762 0 0 0 0 1 0 0 0 0.5 0"/><feBlend in2="BackgroundImageFix" result="effect1_dropShadow"/><feBlend in="SourceGraphic" in2="effect1_dropShadow" result="shape"/></filter><filter id="filter2_bdi" x="13.946" y="8.816" width="80.054" height="68.473" filterUnits="userSpaceOnUse" color-interpolation-filters="sRGB"><feFlood flood-opacity="0" result="BackgroundImageFix"/><feGaussianBlur in="BackgroundImage" stdDeviation="5"/><feComposite in2="SourceAlpha" operator="in" result="effect1_backgroundBlur"/><feColorMatrix in="SourceAlpha" values="0 0 0 0 0 0 0 0 0 0 0 0 0 0 0 0 0 0 127 0"/><feOffset dy="-2"/><feGaussianBlur stdDeviation="4"/><feColorMatrix values="0 0 0 0 0 0 0 0 0 0 0 0 0 0 0 0 0 0 0.1 0"/><feBlend in2="effect1_backgroundBlur" result="effect2_dropShadow"/><feBlend in="SourceGraphic" in2="effect2_dropShadow" result="shape"/><feColorMatrix in="SourceAlpha" values="0 0 0 0 0 0 0 0 0 0 0 0 0 0 0 0 0 0 127 0" result="hardAlpha"/><feOffset dy="-2"/><feGaussianBlur stdDeviation="3.5"/><feComposite in2="hardAlpha" operator="arithmetic" k2="-1" k3="1"/><feColorMatrix values="0 0 0 0 1 0 0 0 0 1 0 0 0 0 1 0 0 0 0.3 0"/><feBlend in2="shape" result="effect3_innerShadow"/></filter><filter id="filter3_f" x="22.946" y="17.816" width="62.054" height="50.473" filterUnits="userSpaceOnUse" color-interpolation-filters="sRGB"><feFlood flood-opacity="0" result="BackgroundImageFix"/><feBlend in="SourceGraphic" in2="BackgroundImageFix" result="shape"/><feGaussianBlur stdDeviation=".5" result="effect1_foregroundBlur"/></filter><filter id="filter4_bdi" x="54.457" y=".712" width="33.757" height="33.757" filterUnits="userSpaceOnUse" color-interpolation-filters="sRGB"><feFlood flood-opacity="0" result="BackgroundImageFix"/><feGaussianBlur in="BackgroundImage" stdDeviation="5"/><feComposite in2="SourceAlpha" operator="in" result="effect1_backgroundBlur"/><feColorMatrix in="SourceAlpha" values="0 0 0 0 0 0 0 0 0 0 0 0 0 0 0 0 0 0 127 0"/><feOffset dy="-2"/><feGaussianBlur stdDeviation="4"/><feColorMatrix values="0 0 0 0 0 0 0 0 0 0 0 0 0 0 0 0 0 0 0.1 0"/><feBlend in2="effect1_backgroundBlur" result="effect2_dropShadow"/><feBlend in="SourceGraphic" in2="effect2_dropShadow" result="shape"/><feColorMatrix in="SourceAlpha" values="0 0 0 0 0 0 0 0 0 0 0 0 0 0 0 0 0 0 127 0" result="hardAlpha"/><feOffset dy="-2"/><feGaussianBlur stdDeviation="3.5"/><feComposite in2="hardAlpha" operator="arithmetic" k2="-1" k3="1"/><feColorMatrix values="0 0 0 0 1 0 0 0 0 1 0 0 0 0 1 0 0 0 0.3 0"/><feBlend in2="shape" result="effect3_innerShadow"/></filter><filter id="filter5_bdi" x="38" y="11.5" width="30.797" height="38.847" filterUnits="userSpaceOnUse" color-interpolation-filters="sRGB"><feFlood flood-opacity="0" result="BackgroundImageFix"/><feGaussianBlur in="BackgroundImage" stdDeviation="5"/><feComposite in2="SourceAlpha" operator="in" result="effect1_backgroundBlur"/><feColorMatrix in="SourceAlpha" values="0 0 0 0 0 0 0 0 0 0 0 0 0 0 0 0 0 0 127 0"/><feOffset dy="-2"/><feGaussianBlur stdDeviation="4"/><feColorMatrix values="0 0 0 0 0 0 0 0 0 0 0 0 0 0 0 0 0 0 0.1 0"/><feBlend in2="effect1_backgroundBlur" result="effect2_dropShadow"/><feBlend in="SourceGraphic" in2="effect2_dropShadow" result="shape"/><feColorMatrix in="SourceAlpha" values="0 0 0 0 0 0 0 0 0 0 0 0 0 0 0 0 0 0 127 0" result="hardAlpha"/><feOffset dy="-2"/><feGaussianBlur stdDeviation="3.5"/><feComposite in2="hardAlpha" operator="arithmetic" k2="-1" k3="1"/><feColorMatrix values="0 0 0 0 1 0 0 0 0 1 0 0 0 0 1 0 0 0 0.3 0"/><feBlend in2="shape" result="effect3_innerShadow"/></filter><linearGradient id="paint0_linear" x1="77.615" y1="33.678" x2="30.212" y2="33.678" gradientUnits="userSpaceOnUse"><stop stop-color="#0075FF"/><stop offset="1" stop-color="#5AC4FF"/></linearGradient><linearGradient id="paint1_linear" x1="46.881" y1="42.829" x2="10.92" y2="42.829" gradientUnits="userSpaceOnUse"><stop stop-color="#0075FF"/><stop offset="1" stop-color="#5AC4FF"/></linearGradient></defs></svg>
